X: 44
M:2/4
L:1/16
K:A
vA2ce agfe | dcBA GBE2 | vB2GB zuGvB2 | zvcuBA GBE2 |
vA2ce agfe | dcBA GBE2 |\
u(A/B/c/d/)|\
ve2ce zuc ve2 | f2df zvd uf2 | ve2ce zuc ve2 | B2GB zvG uA2 |
ve2ce zc e2 | f2df zd f2 |\
vAceg agae |1 fdBG B2:|2 fdBG A2z2 | |]


